src/img/icons/whistle.svg

<svg fill="none" height="15" viewBox="0 0 26 15" width="26" xmlns="http://www.w3.org/2000/svg"><path d="m24.9922 10.2734-5.3125-4.14059-1.6797 1.05469-1.25-.9375.8594-1.71875-3.8672-3.00781c-1.25-.937502-2.8125-1.52344-4.4922-1.52344-1.52344 0-2.92969.46875-4.14062 1.25-.42969-.742188-1.21094-1.25-2.14844-1.25-1.36719 0-2.46094 1.13281-2.46094 2.5 0 1.13281.70312 2.07031 1.71875 2.38281-.3125.82031-.50781 1.71875-.50781 2.61719 0 4.1406 3.35937 7.5 7.5 7.5 2.46096 0 4.68746-1.2109 6.01566-3.0469l5.8984 2.9297c.2344.0781.4297.1172.625.1172.3125 0 .625-.1172.8594-.3516l2.5-2.5c.2734-.2343.3906-.5859.3515-.9375 0-.3906-.1953-.7031-.4687-.9375zm-21.40626-7.69528c-.15625.15626-.27344.35157-.39063.50782-.07812.03906-.15625.03906-.23437.03906-.3125 0-.625-.27344-.625-.625 0-.3125.27344-.625.625-.625.3125 0 .625.3125.625.625zm5.66406 7.42188c-1.40625 0-2.5-1.09375-2.5-2.5 0-1.36719 1.09375-2.5 2.5-2.5 1.3672 0 2.5 1.13281 2.5 2.5 0 1.40625-1.1328 2.5-2.5 2.5z" fill="#fff"/></svg>

<svg width="26" height="15" viewBox="0 0 26 15" fill="none" xmlns="http://www.w3.org/2000/svg">
<path d="M24.9922 10.2734L19.6797 6.13281L18 7.1875L16.75 6.25L17.6094 4.53125L13.7422 1.52344C12.4922 0.585938 10.9297 0 9.25 0C7.72656 0 6.32031 0.46875 5.10938 1.25C4.67969 0.507812 3.89844 0 2.96094 0C1.59375 0 0.5 1.13281 0.5 2.5C0.5 3.63281 1.20312 4.57031 2.21875 4.88281C1.90625 5.70312 1.71094 6.60156 1.71094 7.5C1.71094 11.6406 5.07031 15 9.21094 15C11.6719 15 13.8984 13.7891 15.2266 11.9531L21.125 14.8828C21.3594 14.9609 21.5547 15 21.75 15C22.0625 15 22.375 14.8828 22.6094 14.6484L25.1094 12.1484C25.3828 11.9141 25.5 11.5625 25.4609 11.2109C25.4609 10.8203 25.2656 10.5078 24.9922 10.2734ZM3.58594 2.57812C3.42969 2.73438 3.3125 2.92969 3.19531 3.08594C3.11719 3.125 3.03906 3.125 2.96094 3.125C2.64844 3.125 2.33594 2.85156 2.33594 2.5C2.33594 2.1875 2.60938 1.875 2.96094 1.875C3.27344 1.875 3.58594 2.1875 3.58594 2.5C3.58594 2.53906 3.58594 2.57812 3.58594 2.57812ZM9.25 10C7.84375 10 6.75 8.90625 6.75 7.5C6.75 6.13281 7.84375 5 9.25 5C10.6172 5 11.75 6.13281 11.75 7.5C11.75 8.90625 10.6172 10 9.25 10Z" fill="white"/>
</svg>
